X:455
T:Siobhan O'Donnell's
M:C|
L:1/8
Q:200
S:THSP
R:reel
N:
D:
K:A
"A"ABce a2ae|"D"~f3a fece|f2fe cBAF|"A"EFAB "E"cBAF|
"A"~E3F A2ce|"D"~f3a fece|f2ec dBcA|"E"B2AB "A"cAAB:|:
"A"ABce fece|"D"fA~A2 fAeA|fA~A2 fAeA|aAfA "A"eAce|
"D"~f3e cBAF|"A"~E3F A2ce|"D"f2ec dBcA|"E"B2AB "A"cAAB:||
